X:20801
T:Father O'Flynn
R:Jig
B:Tuneworks Tunebook 2 (https://www.tuneworks.co.uk/)
G:Tuneworks
Z:Jon Warbrick <jon.warbrick@googlemail.com>
M:6/8
L:1/8
K:D
|: A | "D" dAF DFA | "A" Bed cBA | "D" dcd ede | "A" faf ecA |
"D" dAF DFA | "A" Bed cBA | "G" dcd"A" ede | "D" fdd d2 :|
|: g | "D" fdf fga | "A" ecA ABc | "Bm" dcd Bed | "F#m" cAA A2 =c |
"G" BGB Bcd | "D" AFD DFA | "G" dcd efg | "A" fdd"D" d2 :|